svg/outline/bitcoin.svg

<svg width="24" height="24" viewBox="0 0 24 24" fill="none" xmlns="http://www.w3.org/2000/svg">
<path d="M10.5212 7.95032H10.5211L10.5211 10.8771C11.7318 10.9534 14.2582 10.9438 14.2582 9.44707C14.2582 7.95033 12.1323 7.95032 10.5212 7.95032Z" stroke="black"/>
<path d="M13.4253 6.43215C15.408 6.62196 16.9627 7.2096 17.1351 8.96007C17.2521 10.2362 16.6973 10.9955 15.7799 11.4234C17.261 11.7819 18.1619 12.6248 17.9758 14.4945C17.7491 16.8381 15.9412 17.4468 13.3563 17.5752L13.3604 19.9947L11.8381 19.9966L11.834 17.5771C11.4453 17.5716 11.0153 17.5921 10.5837 17.5787L10.5877 19.9982L9.0682 20.0001L9.06415 17.5806L6.0198 17.5222L6.27635 15.754C6.27635 15.754 6.99998 15.7657 7.40483 15.7657C7.82812 15.7635 7.95375 15.4725 7.98504 15.2814L7.97747 11.4028L7.98942 8.64238C7.94268 8.35464 7.74076 8.0094 7.11845 7.99892C7.15234 7.96945 6.00385 8.00031 6.00385 8.00031L6 6.37926L9.11969 6.37537L9.11573 4.00543L10.6874 4.00347L10.6914 6.37341C11.0943 6.36259 11.4901 6.37025 11.8961 6.37191L11.8921 4.00197L13.4213 4.00006L13.4253 6.43215Z" stroke="black"/>
<path d="M10.5 15.6368C11.4912 15.6732 15.0058 15.884 14.9908 14.219C15.0058 12.506 11.4783 12.7364 10.5 12.7276L10.5 15.6368Z" stroke="black"/>
</svg>

<svg xmlns="http://www.w3.org/2000/svg" fill="none" viewBox="0 0 24 24" stroke="currentColor">
  <path d="M10.521 7.95h0v2.927c1.21.076 3.737.067 3.737-1.43 0-1.497-2.126-1.497-3.737-1.497z"/>
  <path d="M13.425 6.432c1.983.19 3.538.778 3.71 2.528.117 1.276-.438 2.035-1.355 2.463 1.481.359 2.382 1.202 2.196 3.072-.227 2.343-2.035 2.952-4.62 3.08l.004 2.42-1.522.002-.004-2.42c-.389-.005-.819.015-1.25.002l.004 2.42-1.52.001-.004-2.42-3.044-.058.256-1.768s.724.012 1.129.012c.423-.002.549-.293.58-.485l-.008-3.878.012-2.76c-.046-.288-.248-.634-.87-.644.033-.03-1.115.001-1.115.001L6 6.38l3.12-.005-.004-2.37 1.571-.002.004 2.37c.403-.01.8-.003 1.205-.001l-.004-2.37L13.422 4l.003 2.432z"/>
  <path d="M10.5 15.637c.991.036 4.506.247 4.49-1.418.016-1.713-3.512-1.483-4.49-1.491v2.909z"/>
</svg>
